X: 127
M:C|
L:1/8
K:G
u(dc)"^Segno"|:\
 .c.A(BG) DG G2 |
 .c.A(BG) (DG) G2 :|
|:v(dg) kg2 agbg | (ag).b.g .e.a ka2 | (dg) kg2 .a.g.b.g |\
 (ge).d.c (BG) G2 |
(dg) kg2 (ag).b.g | .a.g.b.g (ea) ka2 | .b.g.e.f (ge).d.c |\
 (Bc).A.c (BG) G2 "^Segno":|


